X: 863
T: The heather breeze
C: anon.
O: Ireland
B: Francis O'Neill: "The Dance Music of Ireland" (1907) no. 779
R: Reel
Z: Transcribed by Frank Nordberg - http://www.musicaviva.com
F: http://www.musicaviva.com/abc/tunes/ireland/oneill-1001/oneill-1001-077
9.abc
M: C
L: 1/8
K: G
F|D(GBG) dGBG|D(FAF) cFAF|D(GBG) dGBG|B(dCA) BGGF|D(GBG) dGBG|D(FAF) cFAF
|G(ABc) d2(ge)|fdc(A BG)G||
f|g2(gf) gbag|f2(fe) fgaf|g2(gf) gba(g|f)dc(A B)GGf|g2(gf) gbag|f2(fe) fg
a(f|g)fga b2(ag)|fdc(A B)GG||
g|bgd(g b)agb|afd(f a)gfa|bgd(g b)gag|fdc(A B)GGg|b(gdg) b(gdg)|a(fdf) a(
gfa)|bgaf (3(gfe) d(B|c)ed(c B)GG|]
W:
W:
W: From Musica Viva - http://www.musicaviva.com
W: the Internet center for free sheet music downloads.


